!!!OTL: Graf und Nonne (Die Nonne) Egy magas hegytetoeroel
!!!ARE: Europa, Osteuropa, Ungarn, Komitat Komarom, Oroszlany
!!!YOR: 8, S. 285
!!    1981 aufgezeichnet
!!!SCT: Q21551
!!!YEM: Copyright 1995, estate of Helmut Schaffrath.
**kern
*ICvox
*Ivox
*M6/8
*k[b-e-]
*g:
=1
{8b-
8a
8g
8b-
8a
8g
=2
4.dd
4r}
{8dd
=3
4gg
8ffn
4b-
8cc
=4
4dd
2r}
=5
{8ee-
8ee-
8ee-
4dd
8a
=6
4.cc
4b-}
{8g
=7
4b-
8dd
4a
8b-
=8
4.g
4.r}
==
!!!AGN: Ballade, Standesunterschied, vergebliche Werbung, Liebe, Klage
!! Ungarische Fassung der Ballade.
!!!ONB: ESAC (Essen Associative Code) Database: BALLADE
!!!AMT: compound duple
!!!AIN: vox
!!!EED: Helmut Schaffrath
!!!EEV: 1.0
*-
